Hatter-kde-dark/actions/16/kt-set-max-upload-speed.svg

<?xml version="1.0" encoding="UTF-8"?>
<svg viewBox="0 0 16 16" xmlns="http://www.w3.org/2000/svg">
 <defs id="defs3051">
  <style id="current-color-scheme" type="text/css">.ColorScheme-Text {
        color:#dedede;
      }</style>
 </defs>
 <path class="ColorScheme-Text" d="m2 2v2h1v-1h10v1h1v-2h-12zm6 2-5 5.168 0.80469 0.83203 4.1953-4.3379 4.1953 4.3379 0.80469-0.83203-5-5.168zm-2 6v4h1 3v-4h-1v3h-2v-3h-1z" fill="currentColor"/>
</svg>

<svg xmlns="http://www.w3.org/2000/svg" viewBox="0 0 16 16">
  <defs id="defs3051">
    <style type="text/css" id="current-color-scheme">
      .ColorScheme-Text {
        color:#dedede;
      }
      </style>
  </defs>
 <path style="fill:currentColor;fill-opacity:1;stroke:none" 
     d="M 2 2 L 2 4 L 3 4 L 3 3 L 13 3 L 13 4 L 14 4 L 14 2 L 2 2 z M 8 4 L 3 9.1679688 L 3.8046875 10 L 8 5.6621094 L 12.195312 10 L 13 9.1679688 L 8 4 z M 6 10 L 6 14 L 7 14 L 10 14 L 10 10 L 9 10 L 9 13 L 7 13 L 7 10 L 6 10 z "
     class="ColorScheme-Text"
     />
</svg>
